X:1
T:Jig of the Living Dead
C:Robin Beech
Z:robin.beech@mcgill.ca
R:jig
M:6/8
L:1/8
K:Bm
BAB GBF | EFG F3 | EFG FBc | dfd e2_B |
Bcd ecA | GAB F3 | EFe2FG | dcd B3 ::
fef dfc | fBf AfF | EFG FBc | dfF dfF |
fef dfc | fBf cfd | efg fdB | ecA dBG |
Ffe fdf | cfB fFf | EFG FBc | dfF dfF |
fef dfc | fBf cfd | efg fdB | Fd_B =B3 |]
